X: 4912
T: Branohm
R: reel
M: 4/4
K: Adorian
e ~A3 cdec|degd BAGB|A ~E3 ABcd|egfa geag|
eA (3AAA cdec|degd BAGB|AE (3EEE cdec|d2 gd BA:|
edef g2 af|gedc Bcdg|eaag ~a3 b|aged (3Bcd ef|
geaf f2 ef|gedc BAGB|A ~E3 cdec|d2 gd BA:|
eA (3AAA cdec|degd BA (3GGB|1 AE (3EEE ABcd|egfa ge:|
2 AE (3EEE cdec|d2 gd BAAd||
ed (3efg a2 af|gedc BG (3bcd|eaa^g ~a3 b|aged (3Bcd ef|
geaf g2 ef|gedc BAGB|A ~E3 cdec|(3ded gd BA||

